X: 2389
M: C
L: 1/8
K: Bb
uF2 |\
vBzvB2- B>vAuc>uB | vdzvB2- B>vAuc>uB |\
vFzvB2- B>vAuc>uB | vdzvB2- B>vAuB>uc |\
d4- d>ec>d | B>cA>B G2 :|
|: F2 |\
(3(BcB) F>B d>FB>d | (3(cdc) G>c e>dc>B |\
(3(ABA) E>B (3(ABA) E>A | G>F=E>F D>FG>A |\
(3(BcB) F>B d>FB>d | (3(cdc) G>c e>dc>B |\


